X:1
T:Madvig, 11.11.11.11
T:Madvig, 11.11.11.11
T:George W. Haskell, 1913
T:Public Domain Courtesy of the Cyber Hymnal™
C:George W. Haskell, 1913
Z:Public Domain
Z:Courtesy of the Cyber Hymnal™
%%score ( 1 2 ) 3
L:1/8
Q:1/4=160
M:6/4
K:Ab
V:1 treble 
V:2 treble 
V:3 bass 
V:1
 [Ec]4 [Ec]2 [DB]4 [Ec]2 | [CA]6 [CE]6 | [DF]4 [FA]2 [EG]4 [DB]2 | [CA]12 | %4
 [Ec]4 [Ec]2 [DB]4 [Ec]2 | [EA]6 [CF]6 | [B,E]4 [EG]2 [=DG]4 [DF]2 | E12 | %8
 [GB]4 [GB]2 [Ge]4 [Bd]2 | [Ac]6 [EA]6 | [FA]4 [=EG]2 [FA]4 [DF]2 | E12 | %12
 [EA]4 [Ac]2 [_Gc]4 [Ge]2 | [Fe]6 [Fd]6 | [Ec]4 [EA]2 [EG]4 [EB]2 | [EA]12 |] %16
V:2
 x12 | x12 | x12 | x12 | x12 | x12 | x12 | E12 | x12 | x12 | x12 | E12 | x12 | x12 | x12 | x12 |] %16
V:3
 [A,,A,]4 [A,,A,]2 [A,,A,]4 [A,,A,]2 | [A,,E,]6 [A,,A,]6 | [D,A,]4 [D,D]2 [E,B,]4 [E,G,]2 | %3
 [A,,A,]12 | [A,,A,]4 [A,,A,]2 [A,,A,]4 [A,,A,]2 | [A,,C]6 [A,,A,]6 | %6
 [B,,G,]4 [B,,B,]2 [B,,B,]4 [B,,A,]2 | [E,G,]12 | [E,E]4 [E,D]2 [E,B,]4 [E,E]2 | [A,E]6 [A,C]6 | %10
 [D,D]4 [D,B,]2 [D,A,]4 [D,A,]2 | [A,,A,]12 | [A,C]4 [A,E]2 [A,E]4 [A,C]2 | [D,A,]6 [D,A,]6 | %14
 [E,A,]4 [E,C]2 [E,B,]4 [E,D]2 | [A,,C]12 |] %16

